src/assets/icons/shield.svg

<svg width="14" height="14" viewBox="0 0 14 14" fill="none" xmlns="http://www.w3.org/2000/svg">
<g id="shield">
<g clip-path="url(#clip0_156_4595)">
<path id="Vector" fill-rule="evenodd" clip-rule="evenodd" d="M6.75322 0.0531776C6.91042 -0.017852 7.09058 -0.01772 7.24767 0.0535397C9.68968 1.16124 10.7777 1.50635 13.4792 1.9935C13.7509 2.04249 13.9541 2.27071 13.9714 2.54637C14.4936 10.8646 7.73525 13.7485 7.22601 13.9558C7.08503 14.0132 6.92751 14.0148 6.78539 13.9602C6.49403 13.8485 4.68865 13.0786 3.01146 11.2986C1.31901 9.50235 -0.230972 6.68682 0.0287206 2.54641C0.0460112 2.27074 0.249174 2.04249 0.520871 1.9935C3.22159 1.5065 4.31793 1.15354 6.75322 0.0531776ZM1.20458 3.08778C1.10685 6.59299 2.44898 8.95221 3.8842 10.4754C5.13699 11.805 6.46908 12.5041 6.99738 12.7463C8.15605 12.2096 12.9746 9.58759 12.7954 3.08783C10.412 2.63989 9.22231 2.25609 6.99958 1.25803C4.78484 2.24892 3.58926 2.63899 1.20458 3.08778Z" fill="black"/>
</g>
</g>
<defs>
<clipPath id="clip0_156_4595">
<rect width="14" height="14" fill="white"/>
</clipPath>
</defs>
</svg>

<svg xmlns="http://www.w3.org/2000/svg" fill="none" viewBox="0 0 14 14"><g clip-path="url(#a)"><path fill="#000" fill-rule="evenodd" d="M6.753.053a.6.6 0 0 1 .495 0c2.442 1.108 3.53 1.453 6.231 1.94a.6.6 0 0 1 .492.553c.523 8.319-6.236 11.203-6.745 11.41a.6.6 0 0 1-.44.004c-.292-.112-2.097-.881-3.775-2.661C1.32 9.502-.23 6.687.03 2.546a.6.6 0 0 1 .492-.552c2.7-.488 3.797-.84 6.232-1.94M1.205 3.088c-.098 3.505 1.244 5.864 2.68 7.387 1.252 1.33 2.584 2.03 3.112 2.271 1.16-.536 5.978-3.158 5.798-9.658C10.412 2.64 9.222 2.256 7 1.258c-2.215.99-3.41 1.381-5.795 1.83" clip-rule="evenodd"/></g><defs><clipPath id="a"><path fill="#fff" d="M0 0h14v14H0z"/></clipPath></defs></svg>
